src/img/icons/status-cancel.svg

<svg width="32" height="32" viewBox="0 0 32 32" fill="none" xmlns="http://www.w3.org/2000/svg">
<path d="M16.0026 30C14.0662 30 12.246 29.6326 10.5422 28.8977C8.83839 28.1628 7.35635 27.1655 6.09611 25.9057C4.83586 24.646 3.83805 23.1646 3.10268 21.4615C2.36756 19.7584 2 17.9388 2 16.0026C2 14.0662 2.36744 12.246 3.10232 10.5422C3.83719 8.83839 4.83451 7.35635 6.09426 6.09611C7.35402 4.83586 8.83544 3.83805 10.5385 3.10268C12.2416 2.36756 14.0612 2 15.9974 2C17.9338 2 19.754 2.36744 21.4578 3.10232C23.1616 3.83719 24.6437 4.83451 25.9039 6.09426C27.1641 7.35402 28.1619 8.83544 28.8973 10.5385C29.6324 12.2416 30 14.0612 30 15.9974C30 17.9338 29.6326 19.754 28.8977 21.4578C28.1628 23.1616 27.1655 24.6437 25.9057 25.9039C24.646 27.1641 23.1646 28.1619 21.4615 28.8973C19.7584 29.6324 17.9388 30 16.0026 30Z" fill="#E22339"/>
<path fill-rule="evenodd" clip-rule="evenodd" d="M20.1902 9.48062C20.5076 9.16358 20.9061 9 21.3546 9C21.8031 9 22.2015 9.16358 22.5189 9.48062C22.8397 9.80178 22.9997 10.2071 22.9929 10.6606C22.9859 11.1011 22.8314 11.4974 22.5194 11.8098L18.3289 15.9999L22.5262 20.1969C22.847 20.518 23 20.9114 23 21.3544C23 21.79 22.8522 22.1997 22.5264 22.5259C22.2053 22.8466 21.7999 23.0066 21.3464 22.9998C20.9059 22.9928 20.5097 22.8384 20.1973 22.5263L16 18.3288L11.8101 22.519C11.4927 22.836 11.094 22.9999 10.6454 22.9999C10.1969 22.9999 9.79847 22.8363 9.48106 22.5192C9.16027 22.1981 9.00027 21.7927 9.00713 21.3392C9.01413 20.8987 9.16856 20.5025 9.48061 20.1901L13.6711 15.9999L9.48086 11.81C9.16384 11.4926 9 11.094 9 10.6454C9 10.1969 9.16359 9.79846 9.48063 9.48106C9.80179 9.16027 10.2071 9.00027 10.6606 9.00713C11.1011 9.01413 11.4974 9.16856 11.8098 9.48061L16 13.6711L20.1902 9.48062Z" fill="white"/>
</svg>

<svg xmlns="http://www.w3.org/2000/svg" width="32" height="32" fill="none" viewBox="0 0 32 32">
  <path fill="#E22339" d="M16.003 30c-1.937 0-3.757-.367-5.46-1.102a14.14 14.14 0 0 1-4.447-2.992 14.138 14.138 0 0 1-2.993-4.444C2.368 19.758 2 17.939 2 16.002c0-1.936.367-3.756 1.102-5.46a14.14 14.14 0 0 1 2.992-4.446 14.14 14.14 0 0 1 4.445-2.993C12.242 2.368 14.06 2 15.997 2c1.937 0 3.757.367 5.46 1.102a14.14 14.14 0 0 1 4.447 2.992 14.14 14.14 0 0 1 2.993 4.445C29.632 12.242 30 14.06 30 15.997c0 1.937-.367 3.757-1.102 5.46a14.14 14.14 0 0 1-2.992 4.447 14.14 14.14 0 0 1-4.444 2.993c-1.704.735-3.523 1.103-5.46 1.103Z"/>
  <path fill="#fff" fill-rule="evenodd" d="M20.19 9.48c.318-.316.716-.48 1.165-.48.448 0 .846.164 1.164.48.32.322.48.727.474 1.18a1.621 1.621 0 0 1-.474 1.15L18.33 16l4.197 4.197c.321.321.474.714.474 1.157 0 .436-.148.846-.474 1.172-.32.32-.726.48-1.18.474a1.618 1.618 0 0 1-1.149-.474L16 18.33l-4.19 4.19c-.317.317-.716.48-1.165.48-.448 0-.847-.163-1.164-.48a1.592 1.592 0 0 1-.474-1.18 1.62 1.62 0 0 1 .474-1.149L13.67 16l-4.19-4.19A1.607 1.607 0 0 1 9 10.645c0-.448.164-.847.48-1.164a1.6 1.6 0 0 1 1.18-.474c.441.007.837.162 1.15.474L16 13.67l4.19-4.19Z" clip-rule="evenodd"/>
</svg>
